X: 1912
T: Uşşak Sazsemâîsi
C: Neyzen Aziz Dede
O: Turkey
F: http://compmusic.upf.edu/node/140
N: ussak--sazsemaisi--aksaksemai----neyzen_aziz_dede
N: makam= ussak
N: form= sazsemaisi
N: usul= aksaksemai = 10/8
M: 10/8
L: 1/16
K: C _2/4B   
Q: 1/4=112
%%MIDI tuningsystem comma53
G2A2 A2AB AGAG ^FGA4(3BAB  | G4 c2B3/2A/ BcB3/2A/ GBA4z2  | 
w:  1. HANE  |   | 
G4 d2c3/2B/ cdB3/2A/ BcB3/2A/ G4  | \
w:   | 
A2B2 cd(3cBA BcB3/2A/ GBA4z2  | 
w:   | 
A4 f2e3cd2 e2f2 g2fe  | d4 cBA3Gf3/2e/ ded4z2  | 
w:  TESLİM  |   | 
cdef gagf eddf eddc BAG2  | c3B A2B3/2A/ BcB3/2A/ GBA4z2  | 
w:   |   | 
A4 f2e3cd2 e2f2 g2fe  | d4 cBA3Gf3/2e/ ded4z2  | 
w:  TESLİM  |   | 
cdef gagf eddf eddc BAG2  | c3B A2B3/2A/ BcB3/2A/ GBA4z2  | 
w:   |   | 
G4 d2d3_3/4e^f2 gaf2 e2d2  | d4 B2cd cdcB BAA4z2  | 
w:  2. HANE  |   | 
f2e2 d2a2 gfed dedc BAG2  | c4 A2B3/2A/ BcB3/2A/ GBA4z2  | 
w:   |   | 
A4 f2e3cd2 e2f2 g2fe  | d4 cBA3Gf3/2e/ ded4z2  | 
w:  TESLİM  |   | 
cdef gagf eddf eddc BAG2  | c3B A2B3/2A/ BcB3/2A/ GBA4z2  | 
w:   |   | 
A4 f2e3cd2 e2f2 g2fe  | d4 cBA3Gf3/2e/ ded4z2  | 
w:  TESLİM  |   | 
cdef gagf eddf eddc BAG2  | c3B A2B3/2A/ BcB3/2A/ GBA4z2  | 
w:   |   | 
g2a2 a2a_b abag ^fgf2 g2a2  | ^f3_3/4e d2a2 gffe edde fga2  | 
w:  3. HANE  |   | 
g2a2 a2ac' baag fed2 c2BA  | B4 A2d2 cBB3/2A/ GBA4z2  | 
w:   |   | 
A4 f2e3cd2 e2f2 g2fe  | d4 cBA3Gf3/2e/ ded4z2  | 
w:  TESLİM  |   | 
cdef gagf eddf eddc BAG2  | c3B A2B3/2A/ BcB3/2A/ GBA4z2  | 
w:   |   | 
A4 f2e3cd2 e2f2 g2fe  | d4 cBA3Gf3/2e/ ded4z2  | 
w:  TESLİM  |   | 
cdef gagf eddf eddc BAG2  | c3B A2B3/2A/ BcB3/2A/ GBA4z2  | 
w:   |   | 
z12  | A4f2f4e2  | e4d2c4e2  | d8-d2z2  | c4d2e4f2  | \
w:  |  4. HANE  |   |   |   | 
g4a2g4f2  | e4d2c4B2  | 
w:   |   | 
A4a2g4f2  | f4e2e4d2  | (3f2e2d2(3c2B2A2z4  | \
w:   |   |   | 
G4e2d4B2  | c4A2B4G2  | 
w:   |   | 
A8-A2z2  | A4f2f4e2  | e4d2c4e2  | d8-d2z2  | \
w:   |  4. HANE  |   |   | 
c4d2e4f2  | g4a2g4f2  | 
w:   |   | 
e4d2c4B2  | A4a2g4f2  | f4e2e4d2  | (3f2e2d2(3c2B2A2z4  | \
w:   |   |   |   | 
G4e2d4B2  | 
w:   | 
c4A2B4G2  | A8-A2z2  | z20  | A4 f2e3cd2 e2f2 g2fe  | \
w:   |   |  |  TESLİM  | 
d4 cBA3Gf3/2e/ ded4z2  | 
w:   | 
cdef gagf eddf eddc BAG2  | c3B A2B3/2A/ BcB3/2A/ GBA4z2  | 
w:   |   | 
A4 f2e3cd2 e2f2 g2fe  | d4 cBA3Gf3/2e/ ded4z2  | 
w:  TESLİM  |   | 
cdef gagf eddf eddc BAG2  | c3B A2B3/2A/ BcB3/2A/ GBA4z2  | 
w:   |   | 
|


